lib/brands/icons/ok.svg

<svg xmlns="http://www.w3.org/2000/svg" fill="none" aria-hidden="true" viewBox="0 0 48 48"><g id="OK-Icon"><path id="bg" fill="#EE8208" fill-rule="evenodd" d="M3 24C3 12.402 12.402 3 24 3C35.598 3 45 12.402 45 24C45 35.598 35.598 45 24 45C12.402 45 3 35.598 3 24Z" clip-rule="evenodd"/><g id="ok"><path fill="white" d="M30.6663 18.1936C30.6663 21.6079 27.6696 24.3853 23.983 24.3853C20.2973 24.3853 17.2998 21.6079 17.2998 18.1936C17.2998 14.7781 20.2973 12 23.983 12C27.6696 12 30.6663 14.7781 30.6663 18.1936ZM26.7502 18.1936C26.7502 16.7795 25.509 15.6296 23.983 15.6296C22.4583 15.6296 21.2158 16.7795 21.2158 18.1936C21.2158 19.6065 22.4583 20.7571 23.983 20.7571C25.509 20.7571 26.7502 19.6065 26.7502 18.1936Z"/><path fill="white" d="M26.7041 29.4403C28.0645 29.1531 29.3765 28.6543 30.585 27.951C31.4995 27.4167 31.7751 26.2964 31.1988 25.449C30.623 24.5996 29.4149 24.3439 28.4988 24.8783C25.7612 26.4736 22.2366 26.4732 19.5006 24.8783C18.5845 24.3439 17.376 24.5996 16.8014 25.449C16.2252 26.2972 16.4999 27.4167 17.4144 27.951C18.6229 28.6536 19.9349 29.1531 21.2953 29.4403L17.5588 32.9028C16.795 33.6113 16.795 34.7601 17.5596 35.4686C17.9423 35.8225 18.4429 35.9996 18.9436 35.9996C19.445 35.9996 19.9465 35.8225 20.3292 35.4686L23.9993 32.0661L27.6726 35.4686C28.4364 36.1771 29.6757 36.1771 30.4402 35.4686C31.2056 34.7601 31.2056 33.6106 30.4402 32.9028L26.7041 29.4403Z"/></g></g></svg>

<svg xmlns="http://www.w3.org/2000/svg" fill="none" aria-hidden="true" viewBox="0 0 48 48"><path fill="#EE8208" fill-rule="evenodd" d="M3 24C3 12.402 12.402 3 24 3s21 9.402 21 21-9.402 21-21 21S3 35.598 3 24Z" clip-rule="evenodd"/><path fill="#fff" d="M30.666 18.194c0 3.414-2.996 6.191-6.683 6.191-3.686 0-6.683-2.777-6.683-6.191 0-3.416 2.997-6.194 6.683-6.194 3.687 0 6.683 2.778 6.683 6.194Zm-3.916 0c0-1.415-1.241-2.564-2.767-2.564-1.525 0-2.767 1.15-2.767 2.564 0 1.413 1.242 2.563 2.767 2.563 1.526 0 2.767-1.15 2.767-2.563Zm-.046 11.246a13.088 13.088 0 0 0 3.881-1.489c.915-.534 1.19-1.655.614-2.502-.576-.85-1.784-1.105-2.7-.57-2.738 1.595-6.262 1.594-8.998 0-.917-.535-2.125-.28-2.7.57-.576.848-.301 1.968.613 2.502a13.107 13.107 0 0 0 3.881 1.49l-3.736 3.462a1.722 1.722 0 0 0 0 2.566c.383.353.884.53 1.385.53s1.003-.177 1.385-.53L24 32.066l3.674 3.403c.763.708 2.003.708 2.767 0a1.72 1.72 0 0 0 0-2.566l-3.736-3.463Z"/></svg>
